svgs/duotone/browsers.svg

<svg xmlns="http://www.w3.org/2000/svg" viewBox="0 0 576 512"><!-- Font Awesome Pro 6.0.0-alpha2 by @fontawesome - https://fontawesome.com License - https://fontawesome.com/license (Commercial License) --><defs><style>.fa-secondary{opacity:.4}</style></defs><path d="M96 192V352C96 387.346 124.654 416 160 416H512C547.346 416 576 387.346 576 352V192H96ZM172 128H212C218.625 128 224 122.625 224 116V76C224 69.375 218.625 64 212 64H172C165.375 64 160 69.375 160 76V116C160 122.625 165.375 128 172 128Z" class="fa-secondary"/><path d="M512 0H160C124.654 0 96 28.654 96 64V192H576V64C576 28.654 547.346 0 512 0ZM224 116C224 122.625 218.625 128 212 128H172C165.375 128 160 122.625 160 116V76C160 69.375 165.375 64 172 64H212C218.625 64 224 69.375 224 76V116ZM512 116C512 122.625 506.625 128 500 128H268C261.375 128 256 122.625 256 116V76C256 69.375 261.375 64 268 64H500C506.625 64 512 69.375 512 76V116ZM48 432V96C21.49 96 0 117.492 0 144V448C0 483.344 28.654 512 64 512H432C458.51 512 480 490.508 480 464H80C62.326 464 48 449.672 48 432Z" class="fa-primary"/></svg>

<svg xmlns="http://www.w3.org/2000/svg" viewBox="0 0 576 512"><!--! Font Awesome Pro 6.0.0-alpha3 by @fontawesome - https://fontawesome.com License - https://fontawesome.com/license (Commercial License) --><defs><style>.fa-secondary{opacity:.4}</style></defs><path class="fa-primary" d="M512 0H160C124.7 0 96 28.65 96 64v128h480V64C576 28.65 547.3 0 512 0zM224 116C224 122.6 218.6 128 212 128h-40C165.4 128 160 122.6 160 116v-40C160 69.38 165.4 64 172 64h40C218.6 64 224 69.38 224 76V116zM512 116C512 122.6 506.6 128 500 128h-232C261.4 128 256 122.6 256 116v-40C256 69.38 261.4 64 268 64h232C506.6 64 512 69.38 512 76V116zM48 432V96C21.49 96 0 117.5 0 144V448c0 35.34 28.65 64 64 64h368c26.51 0 48-21.49 48-48H80C62.33 464 48 449.7 48 432z"/><path class="fa-secondary" d="M96 192v160c0 35.35 28.65 64 64 64h352c35.35 0 64-28.65 64-64V192H96zM172 128h40C218.6 128 224 122.6 224 116v-40C224 69.38 218.6 64 212 64h-40C165.4 64 160 69.38 160 76v40C160 122.6 165.4 128 172 128z"/></svg>
